src/pos-icons/ferry.svg

<svg height="24" viewBox="0 0 24 24" width="24" xmlns="http://www.w3.org/2000/svg"><path d="m6 6h12v3.96l-6-1.96-6 1.96m-2.06 9.04h.06c1.6 0 3-.88 4-2 1 1.12 2.4 2 4 2s3-.88 4-2c1 1.12 2.4 2 4 2h.05l1.9-6.69c.08-.25.05-.53-.06-.77-.13-.24-.34-.42-.6-.5l-1.29-.42v-4.62c0-1.11-.9-2-2-2h-3v-3h-6v3h-3a2 2 0 0 0 -2 2v4.62l-1.29.42c-.26.08-.47.26-.6.5-.11.24-.14.52-.06.77m17.95 8.69c-1.39 0-2.78-.47-4-1.33-2.44 1.71-5.56 1.71-8 0-1.22.86-2.61 1.33-4 1.33h-2v2h2c1.37 0 2.74-.35 4-1 2.5 1.3 5.5 1.3 8 0 1.26.65 2.62 1 4 1h2v-2z"/></svg>

<?xml version="1.0" encoding="UTF-8"?><!DOCTYPE svg PUBLIC "-//W3C//DTD SVG 1.1//EN" "http://www.w3.org/Graphics/SVG/1.1/DTD/svg11.dtd"><svg xmlns="http://www.w3.org/2000/svg" xmlns:xlink="http://www.w3.org/1999/xlink" version="1.1" id="mdi-ferry" width="24" height="24" viewBox="0 0 24 24"><path d="M6,6H18V9.96L12,8L6,9.96M3.94,19H4C5.6,19 7,18.12 8,17C9,18.12 10.4,19 12,19C13.6,19 15,18.12 16,17C17,18.12 18.4,19 20,19H20.05L21.95,12.31C22.03,12.06 22,11.78 21.89,11.54C21.76,11.3 21.55,11.12 21.29,11.04L20,10.62V6C20,4.89 19.1,4 18,4H15V1H9V4H6A2,2 0 0,0 4,6V10.62L2.71,11.04C2.45,11.12 2.24,11.3 2.11,11.54C2,11.78 1.97,12.06 2.05,12.31M20,21C18.61,21 17.22,20.53 16,19.67C13.56,21.38 10.44,21.38 8,19.67C6.78,20.53 5.39,21 4,21H2V23H4C5.37,23 6.74,22.65 8,22C10.5,23.3 13.5,23.3 16,22C17.26,22.65 18.62,23 20,23H22V21H20Z" /></svg>
